X:1
T:Jugend-Lieder
T:Die frühen Gräber
T:Jugend-Lieder
T:Mathilde Kralik
T:11. Die frühen Gräber
T:Friedrich Gottlieb Klopstock
T:Creative Commons copyright waiver (CC0 1.0 Universal)
T:Creative Commons copyright waiver (CC0 1.0 Universal)
T:Creative Commons copyright waiver (CC0 1.0 Universal)
T:Creative Commons copyright waiver (CC0 1.0 Universal)
C:Mathilde Kralik
Z:Friedrich Gottlieb Klopstock
Z:Creative Commons copyright waiver (CC0 1.0 Universal)
%%score ( 1 2 ) { ( 3 5 ) | ( 4 6 7 ) }
L:1/8
Q:1/4=60
M:4/4
K:D
V:1 treble nm="Singstimme\nVoice"
V:2 treble 
V:3 treble nm="Piano"
V:5 treble 
V:4 bass 
V:6 bass 
V:7 bass 
V:1
"^Langsam" z4 z2 F2 | d B F2 GA/G/ F G | A6 z2 | (A2 GF B2) F2 | G2 F E =c2 A2 | F6 z2 | %6
w: Will-|kom- men, o sil- * * ber- ner|Mond,|schö- * * * ner,|stil- ler Ge- fährt’ der|Nacht!|
 z2 B B ^A4 | d2 d2 c4 | z2 =c4 x ^A | f d B4 z2 | z8 | z8 | d6 c B |!<(! f8-!<)! | f6 e d | %15
w: du ent- fliehst?|Ei- le nicht,|* Ge-|dan- ken- freund!|||Se- het, er|bleibt,|_ das Ge-|
 (e6 dc) | (d2 cB c2 BA | B6) B A | A2 z2 z4 | z8 | z8[Q:1/4=58] || %21
w: wölk _ _|wall- * * * * *|* te nur|hin.|||
[K:C][M:12/8][Q:3/8=90] z4 z2 z2 z2 z d | d6- d3 d2 d | d3 c2 z z3 z B c | d2 ^c c3 z3 z d e | %25
w: Des|Mai- * es Er-|wa- chen ist nur|schö- ner noch, wie die|
 f2 A A3- A2 z z ^G A |"^Modern spelling: \nTau\n" B6- B3 B2 c | d6- d3- d e f | %28
w: Som- mer- nacht, _ wenn ihm|Tau, _ hell wie|Licht, _ _ aus der|
 =g2 G G3- G G2- G G G | G3- G ^F E ^A3 B ^c d | =G3 z3 z6 | z12 |[K:D][M:4/4][Q:3/8=60] z4 z2 F2 | %33
w: Lo- cke träuft, _ und _ zu dem|Hü- * gel he- rauf röth- lich er|kommt.||Ihr|
 d B F2 G2 F G | A4 B2 F2 | G2 F E =c2 A2 | F6 z2 | z2 B B ^A4 | d2 d2 c4 | z2 =c4 B ^A | B2 B6 | %41
w: Ed- le- ren, ach es be-|wächst eu- re|Ma- le schon ern- stes|Moos!|O, wie war|glück- lich ich,|als ich noch|mit euch|
 (B4 A4-) | A4 GB eg | g4 f3 e | B8 | z8 |!<(! d8-!<)! | d4!>(! c3 B | B6!>)! z2 | z8 | z8 |] %51
w: sa- *|* he * * *||Tag,||schim-|* mern die|Nacht!|||
V:2
 x8 | x8 | x8 | x8 | x8 | x8 | x8 | x8 | (ge (=c4) B) x | x8 | x8 | x8 | x8 | B8- | B6 c d | x8 | %16
w: ||||||||bleib, _ _ _||||||||
 x8 | x8 | x8 | x8 | x8 ||[K:C][M:12/8] x12 | x12 | x12 | x12 | x12 | x12 | x12 | x12 | x12 | x12 | %31
w: |||||||||||||||
 x12 |[K:D][M:4/4] x8 | x8 | x8 | x8 | x8 | x8 | x8 | x8 | x8 | x8 | x4 G2 G2 | G4 F3 E | x8 | x8 | %46
w: |||||||||||* sich|rö- then den|||
 D8- | D4 C3 B, | B,6 x2 | x8 | x8 |] %51
w: |||||
V:3
!p! (.[DFB]2 .[DFB]2 .[DFB]2 .[DFB]2) | (.[DFB]2 .[DFB]2 .[DG]2 .[DG]2) | A8 | %3
 [B,F]2 [B,F]2 [B,^D]2 [B,D]2 | [B,E]2 [B,E]2 [=CEA]2 [CE]2 | F8 | %6
!mf! [B,EB]2 [B,EB]2 [^A,E^A]2 [A,EA]2 | [Gd]2 [=Fd]2 [^Fc]2 [Fc]2 |"_weich" (!^!ge =c4) (B^A) | %9
"_Note that the slur at the end of previous bar (9) extends beyond\nthe last note, and was possibly intended to extend into this bar; \nif so, I would expect it to go as far as the minim B. \n" fd B4 (cd | %10
 d6 cB) | (B6 cd) | d6 cB |"_cresc." f6 ^ga | a6 ^gf | ^g6 fe | f2 ed e2 dc |"_dim." dcBc dF ^G2 | %18
 [CA]2 [CA]2 [A,CA]2 [A,CA]2 | [A,CFA]2 [A,CFA]2 [A,CFA]2 [A,CFA]2 | %20
 [A,=C=FA]2 [A,CFA]2"_rit." [A,CFA]2 [A,CFA]2 || %21
[K:C][M:12/8]!p! ([B,DA]G[DFc] B[FAe]d)!<(! ([B,DA]G[DFc] B[FAe]d)!<)! | %22
!mf! ([B,DA]G[DFc] B[FAe]d) ([B,DA]G[DFc] B[FAe]d) | %23
"_cresc." ([CEB]A[EAd] c[Acf]e) ([CEB]A[EAd] c[^GBf][Ae]) | %24
 ([EGd]^c[G_Bf] e[Bda]g) ([EGd]c[GBf] e[Bda]g) | %25
!f! ([A,CA]F)([CFc] A)([Aca]f) ([A,CA]F)([CFc]"_dim." A)([Aca]f) | %26
!pp! ([^G,D]F,)([B,F] G,)([FB]D) ([G,D]F,)([B,F] G,)([FB]D) | %27
 ([D^G]B,)([FB] D)([Gd]F)"_cresc." ([DG]B,)([Gd] F)([B^g]G) | %28
!ff! (!>![e=gd']c')([cea] g)([Gcf]e)"_dim." ([EGd]c)([CEA]!>(! G)([G,CF]E)!>)! | %29
!p! [^A,^CE]G,[A,CE] G,[A,CE]G, [A,CE]G,[A,CE] ^G,[B,^G]G, | %30
 G3- G^FE ^A3"^espress." !arpeggio![B,DB]^cd | G6- G3"_rit." F3 | %32
[K:D][M:4/4] [DF]2 [B,DF]2 [B,DF]2 [B,DF]2 | [DFd]B [DF]2 [DG]2 [DF]G | A4 [B,B]2 [^DF]2 | %35
 [B,EG]2 FE [E=c]2"^C natural needed \nhere as well\nV\nV\nV\nV\nV\nV\nV\nV\n< <    \n" A2 | F8 | %37
!mf! [B,EB]2 [B,EB]2 [^A,E^A]2 [A,EA]2 | [Gd]2 [=Fd]2 [^Fc]2 [Fc]2 | ge =c4 B^A | fd B6 | %41
 [EB]2 [=CEB]2 [CEA]2 [CEA]2 | [B,^DA]2 [B,FA]2 [B,FG]2 [B,EG]2 |"_cresc." G4!<(! F4!<)! |!f! G8 | %45
!>(! G4 F3!>)! E |!pp!!<(! G8-!<)! |!>(! G6"_dim." F2 | [DF]2 [B,DF]2 [B,DF]2 [B,DF]2 | %49
!pp! [F,B,DF]2 [F,B,DF]2 [F,B,DF]2 [F,B,DF]2 | [F,B,DF]8!>)! |] %51
V:4
 (B,F, D,4) !trill(!TC,2{B,,C,} | (.B,,2 .G,,2 .[G,B,]2 .[G,B,]2) | %2
 [F,A,]2 [F,A,]2 [E,A,]2 [E,A,]2 | [^D,F,]2 [D,A,]2 [B,,A,]2 [B,,A,]2 | [E,G,]2 [E,G,]2 A,,2 A,,2 | %5
!<(! B,,4 !trill(!TA,,4!<)! | G,,2 G,,2 F,,2 F,,2 | B,2 B,2 ^A,2 A,2 | %8
 [E,G,=C]2 [E,G,C]2 [E,G,C]2 [E,G,C]2 | [D,F,B,]2 [D,F,B,]2 [D,F,B,]2 [D,F,B,]2 | B,8 | B,8 | B,8 | %13
 B,8 | D8 | C8 | B,4 A,4 | [E,F,A,]2 [E,F,A,]2 [E,F,A,]2 [E,B,]2 | A,E,!mp! A,,2 !trill(!T^G,,4 | %19
 F,,4 !trill(!TE,,4{D,,E,,} | ^D,,4 !trill(!T=D,,4{C,,D,,} || %21
[K:C][M:12/8]!ped! (!arpeggio![G,,,G,,F,]G,A, B,CD)!ped-up!!ped! (!arpeggio![G,,F,]G,A, B,CD)!ped-up! | %22
!ped! (!arpeggio![G,,F,]G,A, B,CD)!ped-up!!ped! (!arpeggio![G,,F,]G,A, B,CD)!ped-up! | %23
!ped! (!arpeggio![=G,,^G,]A,B, CDE)!ped-up!!ped! (!arpeggio![=G,,G,]A,B, CDE)!ped-up! | %24
!ped! (!arpeggio![G,,_B,]G,^C EFG)!ped-up!!ped! ([G,,B,]G,C EFG)!ped-up! | %25
!ped! (!arpeggio![G,,C,]F,)(A, C)(FA)!ped-up!!ped! ([G,,C,]F,)(A, C)(FA)!ped-up! | %26
!ped! ([E,,B,,]D,)(D, F,)(^G,B,) ([E,,B,,]D,)(D,!ped-up! F,)(G,B,) | %27
!ped! ([E,,D,]F,)(^G, B,)(B,D)!ped-up!!ped! ([E,,F,]^G,)(B, D)(DF)!ped-up! | %28
!ped! (!>![C,,=G,,C,]E,)(G, C)(EC) (G,E,)(C, G,,)(C,,C,)!ped-up! | %29
!ped! [^F,,^C,]E,[F,,C,] E,[F,,C,]E, [F,,C,]E,[F,,C,]!ped-up! ^E,[F,,D,]E, | %30
 [^F,,^C,=E,]6- [F,,C,E,]3 [D,^E,]F,,[D,E,] | ^F,,^F,F,, F,F,,F,- [F,,F,]6 | %32
[K:D][M:4/4] (B,F, D,4) !trill(!TC,2{B,,C,} | B,,2 B,,2 [G,B,]2 [G,B,]2 | %34
 [F,A,]2 [E,G,]2 [^D,F,]2 [B,,A,]2 | E,2 [E,G,]2 [A,,G,]2 A,,2 | B,,4 !trill(!TA,,4{G,,A,,} | %37
 G,,2 G,,2 F,,2 F,,2 | B,2 B,2 ^A,2 A,2 | [E,G,=C]2 [E,G,C]2 [E,G,C]2 [E,G,C]2 | %40
 [D,F,B,]2 [D,F,B,]2 (D2 CB,) | (=CG, E,4) (F,G, | A,F, ^D,2) (E,2 F,G,) | F,,2 F,,2 F,,2 F,,2 | %44
 [=F,,=F,]2 [F,,F,]2 [F,,F,]2 [F,,F,]2 | ^F,,2 F,,2 F,,2 F,,2 | =F,,2 F,,2 F,,2 F,,2 | %47
 ^F,,2 F,,2 F,,2 F,,2 | (B,F, D,4) !trill(!TC,2{B,,C,} | (B,,F,, D,,4) !trill(!TC,,2{B,,,C,,} | %50
 B,,,8 |] %51
V:5
 x8 | x8 | D2 D2 =C2 C2 | x8 | x8 | [B,^D]2 [B,D]2 [B,D]2 [B,D]2 | x8 | x8 | [G=c]2 G2 G2 G2 | %9
 [FB]2 F2 F2 F2 | [^EG]2 [EG]2 [EG]2 [EG]2 | [DF]2 [DF]2 [DF]2 [DF]2 | [^E^G]2 [EG]2 [EG]2 [EG]2 | %13
 [FB]2 [FB]2 [FB]2 [FB]2 | [Bd]2 [Bd]2 [Bd]2 [Bd]2 | [Ac]2 [Ac]2 [Ac]2 [Ac]2 | %16
 [^GB]2 [GB]2 [FA]2 [FA]2 | [DF]2 [DF]2 [DF]2 DD | x8 | x8 | x8 ||[K:C][M:12/8] x12 | x12 | x12 | %24
 x12 | x12 | x12 | x12 | x12 | x12 | [^CE]^A,[CE] A,CA, z!<(! A,[CE] x3!<)! | %31
 [^CE]^A,[CE] A,[CE]A, [CE]A,[CE] [CE]A,[CE] |[K:D][M:4/4] x8 | x8 | D2 =C2 x4 | %35
 x2 B,2 x2 [!courtesy!=CE]2 | [B,^D]2 [B,D]2 [B,D]2 [B,D]2 | x8 | x8 | [G=c]2 G2 G2 G2 | %40
 [FB]2 F2"_espress." F2 [DF]2 | x8 | x8 | [^A,^CE]2 [A,CE]2 [A,CE]2 [A,CE]2 | %44
 [G,B,D]2 [G,B,D]2 [G,B,D]2 [G,B,D]2 | [^A,^CE]2 [A,CE]2 [A,CE]2 [A,C]2 | %46
 [G,B,D]2 [G,B,D]2 [G,B,D]2 [G,B,D]2 | [^A,^CE]2 [A,CE]2 [A,CE]2 [A,CE]2 | x8 | x8 | x8 |] %51
V:6
 x8 | x8 | x8 | x8 | x8 | x8 | x8 | x8 | x8 | x8 | B,^G,- G,6 | B,F,- F,6 | B,^G,- G,6 | %13
 B,F,- F,6 | DB,- B,6 | CA,- A,6 | B,^G,- [E,G,]2 A,F,- F,2 | x8 | x8 | x8 | x8 || %21
[K:C][M:12/8] x12 | x12 | x12 | x12 | x12 | x12 | x12 | x12 | x12 | x12 | x12 |[K:D][M:4/4] x8 | %33
 x8 | x8 | x8 | x8 | x8 | x8 | x8 | x8 | x8 | x8 | x8 | x8 | x8 | x8 | x8 | x8 | x8 | x8 |] %51
V:7
 x8 | x8 | x8 | x8 | x8 | x8 | x8 | x8 | x8 | x8 | x2 C,2 C,2 C,2 | x2 D,2 D,2 D,2 | %12
 x2 C,2 C,2 C,2 | x2 D,2 D,2 D,2 | x2 E,2 E,2 E,2 | x2 E,2 E,2 E,2 | x6 E,2 | x8 | x8 | x8 | x8 || %21
[K:C][M:12/8] x12 | x12 | x12 | x12 | x12 | x12 | x12 | x12 | x12 | x12 | x12 |[K:D][M:4/4] x8 | %33
 x8 | x8 | x8 | x8 | x8 | x8 | x8 | x8 | x8 | x8 | x8 | x8 | x8 | x8 | x8 | x8 | x8 | x8 |] %51

